X:844010
T:Journey to Skye
C: Donald Thompson
B: 
O:Arranged by Kevin Fraser
Z:Kevin Fraser
Q:1/4=90
M:4/4
L:1/16
R:March
V:1 gstem=up stem=down
V:2 gstem=up stem=down
I:MIDI=program 110
K:HP
%%MIDI gracedivider 4
%%MIDI gchord
%%MIDI beatstring 
%%landscape
T:"Solo"
V:1 sname=Melody
     {g}(A4 A2)dg {a}(f4 f2)d2 | {gef}e16  | {g}(A4 A2)dg {a}(f4 f2)d2 | {g}e2(a2 a8) | 
"22s"{g}af{a}(g2 g4){e}(f4 f2){gef}ed | {g}fd{gef}(e2 e12)| {g}d2{e}(d2 d2)cA {GdG}(B4 B2)e2 | {g}(G4 A12) || 
V:2 
|X8|
T:Pipers
V:1 sname=Melody
"40s"{g}(A4 A2)dg {a}(f4 f2)d2 | {gef}e16 | {g}(A4 A2)dg {a}(f4 f2)d2 | {g}e2a2 d2g2 {gef}e4 c4 | (d4 d2)ef (c4 c2)ef | (g4 g2)d2 B2(c2 c4) A2 | {g}(G4 G2)(A2 A8 | A16)|| 
V:2 sname=Harmonies
{g}(A4 A2)dg {a}(f4 f2)d2 | {gef}e2(G2 {g}G2)Bd {cd}(c4 c2){g}AB3 | {g}(A4 A12 | {g}e2a2 d2g2 {gef}e4 c4 | (f4 f2)ga (e4 e2)ef | (d4 d4) B2(c2 c4) A2 | {g}(B4 B2)(c2 c8 | c16)|| 
T:
V:1
"accel""1:17s"{g}d2gf {g}e2fd {g}e2ag {ag}(a4 | a16) | g2fd {g}e2cA {g}d2cA {g}B2AG | {g}A16 |
T:
V:1
"1:29s"{g}d2gf {g}e2fd {g}e2dc B2cd e2ag | a2fe f2dc d8 |"1:38s"c4Bc d2 e2dc d2 A2 | G2BG Ace(cd8)||
V:2
"1:29s"{g}d2gf {g}e2fd {g}e2dc B2cd e2ag | a16          |"1:38s"g4fg d2 e2dc d2 A2 | G4 A3(AB8)||
T:
M:6/8
V:1
|:"1:50" {a}g4{GdG}g2 f3ed2 | {g}f4{GdG}f2 e3dc2 | {gde}d3cd2 {g}c2e2a2 | g3fd2 {gef}(e6 [1 e12) :|
         [2 {g}d3cde {gcd}c3B{G}A2| {g}B2{d}c2e2 {ag}(a4 | a12  a12) ||
V:2
|:"1:50" {a}g4{GdG}g2 f3ed2 | {g}f4{GdG}f2 e3dc2 | {gde}d3cd2 {g}c2e2a2 | g3fd2 {gef}(e6 [1 e12) :|
         [2 {g}d3cde {gcd}c3B{G}A2| {g}B2{d}c2e2 {ag}(a4 | a12  a12) ||
M:4/4
"2:10"{g}(A4 A2)dg {a}(f4 f2)d2 | {gef}e16  | {g}(A4 A2)dg {a}(f4 f2)d2 | {g}e2(a2 a8) | "22s"{g}af{a}(g2 g4){e}(f4 f2){gef}ed | {g}fd{gef}(e2 e12)| {g}d2{e}(d2 d2)cA {GdG}(B4 B2)e2 | {g}(G4 A12) || $
L:1/8
T: Drum Beats
|:"2:47" ag/2f/2 {a}g6 |{f}gf/2e/2 {g}f6 | {g}fe/2d/2 {g}e3{gf}g | (G2 A6) :| 
  "3:10"{f}g4f/2e/2 {g}f3a | (G2 (A6) | A8 |"accel"  A8) ||
M:6/8
V:1 Melody
|:"accel""3:19"{g}A>ea g>fe |{a}g>fe {g}(f3 | f3 f3 | f3 f3) | g>ag {a}f>ed | {g}f>ed {gef}(e3 | e3 e3 | e3 e3) | 
 [1"3:30"{g}d>ed {g}c>B{G}A  |{g}d>ed {g}c>ea 	|g3ag2 {a}f3ed2	|{g}f3ed2 {gef}e3 :|
 [2"3:44"{g}d>ed {g}c>ea     |g2 f2 d2 |{g}f>ed {gef}e3 | e3 e3 | {g}d>ed {g}cea | "3:52"{g}A2 B2 G2 | (A3 A3 | A3 A3)|| 
|: {g}B>cd>B {g}c>de |{g}d>fa g>fe |{g}f>edf {g}e>cA |{g}dBG {g}A3 | {g}B>cd>B {g}c>ea | g>feg {a}f>ed |{g}c>dB {g}c>ea   [1  dBG {g}A3:| [2 dBG {g}(A3 | A3 A3) ||
V:2 Harmonies
M:12/8
|:"4:18"{ag}a2gf {gf}(g3 g3 g3) | {a}g>fe {g}(f3 f3 f3)  [1{g}f>ed (e3 e3 e2){gf}g | {g}(G3 A3 A3 A3):|
[2 {g}f2ed {g}(e3 e3 e2) {gf}g  | {g}(G3 A3 A3 A3) | {g}f2ed {g}(e3 e3 e2) {gf}g  | {g}(G3 A3) z z ||
T:"Drum Corp Solo"
||Z||
M:4/4
L:1/16
       "5:33s"{g}d2gf {g}e2fd {g}e2ag {ag}(a4  | a16)               | g2fd {g}e2cA {g}d2cA {g}B2AG	| {g}A16 |
              {g}d2gf {g}e2fd {g}e2dc B2cd     | e2ag a2fe f2dc "**"d8 | c4 Bcd2 e2dc d2A2 | G2BG Ace(c | cd15)||


